X: 34
T: Missa Ma bouche rit / Kyrie
N: Derived from Mar1010a-Missa_Ma_bouche_rit-Kyrie.krn
C: Johannes Martini
%%abc-version 2.0
%%abcx-abcm2ps-target-version 5.9.1 (29 Sep 2008)
%%abc-creator hum2abc beta
%%abcx-conversion-date 2019/02/17 07:19:41
%%abc-edited-by Jesse Rodin
%%abc-edited-by Chris Gage 10-22-2014
%%abcx-initial-encoding-date 2015/03/07/
%%humdrum-veritas 1729096891
%%humdrum-veritas-data 3484433145
%%linebreak <none>
%%barnumbers 0
L: 1/4
M: 4/2
Q: 1/2=120
%%staves [1 2 3 4]
V: 1 clef=treble
V: 2 clef=treble-8
V: 3 clef=treble-8
V: 4 clef=bass
K: C
[V:1] A8 | 
[V:2] A4A4 | 
[V:3] z8 | 
[V:4] A,8 | 
[V:1] E4E4 | 
[V:2] A4c4- | 
[V:3] z8 | 
[V:4] C8 | 
[V:1] A4A4 | 
[V:2] c2A2c2d2 | 
[V:3] A8 | 
[V:4] F,4C4 | 
[V:1] G3AB2c2- | 
[V:2] e4g4- | 
[V:3] E4E4 | 
[V:4] B,6E2- | 
[V:1] c2A2c2d2 | 
[V:2] g2f2f2e2 | 
[V:3] A4A4 | 
[V:4] E2C2C3B, | 
[V:1] B4d4- | 
[V:2] g4f2d2- | 
[V:3] G4D2G2- | 
[V:4] D8 | 
[V:1] d2cBA4 | 
[V:2] d2e4d2 | 
[V:3] GAB2c2BA | 
[V:4] G,4F,4 | 
[V:1] B4E2F2 | 
[V:2] e4c3d | 
[V:3] G4C4 | 
[V:4] E,2G,4A,2 | 
[V:1] G3FE2A2- | 
[V:2] e3dc2f2 | 
[V:3] z8 | 
[V:4] G,2E,4D,2 | 
[V:1] A2G3FE2 | 
[V:2] d2e3dc2- | 
[V:3] z8 | 
[V:4] F,2E,2C,4 | 
[V:1] D4C4 | 
[V:2] c2B2c2e2 | 
[V:3] z4e2c2 | 
[V:4] G,4z2A,2 | 
[V:1] z4c4 | 
[V:2] d2g4^f2 | 
[V:3] d2B2A4 | 
[V:4] B,2D2C3B, | 
[V:1] B2G3AB2 | 
[V:2] g4e2d2 | 
[V:3] G4z2G2 | 
[V:4] D4G,4 | 
[V:1] c2BAG2A2- | 
[V:2] f2g4f2- | 
[V:3] c2d2e2A2 | 
[V:4] A,2G,2E,2F,2- | 
[V:1] A2G4^F2 | 
[V:2] f2e2d4 | 
[V:3] c2B2A4 | 
[V:4] F,2G,2D,4 | 
[V:1] G8 ||  
[V:2] d8 ||  
[V:3] G8 ||  
[V:4] D8 ||  
[V:1]  [K:C] [K:clef=treble][M:4/2]G4A4 | 
[V:2]  [K:C] [K:clef=treble-8][M:4/2]e4f4 | 
[V:3]  [K:C] [K:clef=treble-8][M:4/2]c6d2 | 
[V:4]  [K:C] [K:clef=bass][M:4/2]C,4F,3E, | 
[V:1] G2c3Ad2- | 
[V:2] g4a4 | 
[V:3] e4c2f2- | 
[V:4] C,4F,4 | 
[V:1] dcc4B2 | 
[V:2] f4g4 | 
[V:3] fec2d4 | 
[V:4] A,4G,4 | 
[V:1] c4B2c2 | 
[V:2] e4d2e2 | 
[V:3] c4z4 | 
[V:4] C,4G,4- | 
[V:1] d4c2A2 | 
[V:2] d2g4^f2 | 
[V:3] B4c4 | 
[V:4] G,4A,4 | 
[V:1] BAGFE2D2 | 
[V:2] g8 | 
[V:3] d4c2d2 | 
[V:4] G,4C,2G,2 | 
[V:1] F4E4 | 
[V:2] a8 | 
[V:3] A2d4^c2 | 
[V:4] F,2D,2A,4 | 
[V:1] z2A2B2d2 | 
[V:2] f6a2- | 
[V:3] d3cd2f2 | 
[V:4] D,8 | 
[V:1] c2BcdcBA | 
[V:2] aga2f2g2- | 
[V:3] e2defedc | 
[V:4] A,4D,2G,2- | 
[V:1] B2A4^G2 | 
[V:2] gfd2e4 | 
[V:3] d2A2B4 | 
[V:4] G,2F,2E,4 | 
[V:1] A8 ||  
[V:2] c8 ||  
[V:3] A8 ||  
[V:4] A,8 ||  
[V:1]  [K:C] [K:clef=treble][M:3/1]z12 | 
[V:2]  [K:C] [K:clef=treble-8][M:3/1]e4dg2fged2 | 
[V:3]  [K:C] [K:clef=treble-8][M:3/1]z12 | 
[V:4]  [K:C] [K:clef=bass][M:3/1]E,4G,2A,2B,3A, | 
[V:1] z12 | 
[V:2] c2B2c3Bd4 | 
[V:3] E4G2A2B4 | 
[V:4] C3/B,/G,2E,2F,2D,4 | 
[V:1] E4G2A2B4 | 
[V:2] G4z4g4 | 
[V:3] c3de2f2d4 | 
[V:4] C,4C2F,2G,4 | 
[V:1] c4z2B2c2d2 | 
[V:2] e2g2fadg2fg2 | 
[V:3] c6z2z2B2 | 
[V:4] C,2E,2F,2G,2A,2G,2 | 
[V:1] cA2FGAG2A^F3/E/F | 
[V:2] efa2gfdefd3/c/d | 
[V:3] c2d2c2B2A4 | 
[V:4] A,F,2D,E,F,G,2D,4 | 
[V:1] G2BcdB2c2AG2 | 
[V:2] B2e2dg2f2d2^c | 
[V:3] G3ABG2A2FE2 | 
[V:4] D2z2D2B,A,F,2G,2 | 
[V:1] FA2GE2D2z2E2 | 
[V:2] d2A3/B/cBcd3/e/fge | 
[V:3] D2F2G2A2B2c2 | 
[V:4] A,2D,2C,G,2F,D,2C,2 | 
[V:1] F3/E/DCB,2E2FD2C/D/ | 
[V:2] da3/g/feg3/f/edf3/g/a | 
[V:3] A4E2G2F4 | 
[V:4] D,2F,2G,2E,2A,4 | 
[V:1] E12 |]  
[V:2] g3e2d/c/B6 |]  
[V:3] E12 |]  
[V:4] C2B,3G,G,6 |]  



